X:1
T:[ID 1-90]
T:[ID 1-90]
T:Bezeichnung standardisiert: ..swinflusen Sesken; De melkboer; Rasmus Storm Marsch; Stoss Wickel 6ken 15. In dieser Quelle auch als:  ..swinflusen Sesker In dieser Quelle auch als: Wickel Sesken. In anderer Quelle: Cataljon - Hs. Bolhuis 1730 ca. (Anm. S. Wascher);  March - Hs. \"OVLA E-97/E-149 um 1750 (Anm. S. Wascher);  Nr. 13 March  - Rasmus Storm 1760 (Anm. S. Wascher);
T:Urheber unbekannt Erstbeleg: 1730 ca. (Datum in der schriftlichen Quelle) Datum in der hier transkribierten schriftlichen Quelle: 1775
C:Urheber unbekannt
C:Erstbeleg: 1730 ca. (Datum in der schriftlichen Quelle)
C:Datum in der hier transkribierten schriftlichen Quelle: 1775
L:1/8
M:2/4
K:G
V:1 treble 
V:1
 G2 DG | A2 DA | GF/G/ A/G/F/E/ | F/E/D/C/ B,/C/D/B,/ | B,2 G,B, | F2 FA | %6
 GF/E/ D/[CE]/[B,F]/[A,C]/ | B,2 B,2 :: B,/D/G/A/ BB | B,/D/G/A/ BB | cBcA | B2 z B/A/ | BB B2 | %13
 cA A2 | GF/G/ A/G/F/E/ | F/E/D/C/ B,/C/D/B,/ | B,2 G,B, | F2 DF | GF/E/ D/C/B,/A,/ | G,2 G,2 :| %20

